icon-themes/sifr_svg/cmd/pl/sc_underlinedouble.svg

<svg viewBox="0 0 16 16" xmlns="http://www.w3.org/2000/svg"><path d="m4 2v7h2v-1h3c1.656854 0 3-1.3431458 3-3s-1.343146-3-3-3h-3zm2 2h3c.5522847 0 1 .4477153 1 1s-.4477153 1-1 1h-3zm-4 6v2h12v-2zm0 3v2h12v-2z" fill="#555753"/></svg>

<svg xmlns="http://www.w3.org/2000/svg" viewBox="0 0 16 16">
<path
   style="fill:#555753"
   d="M 4 2 L 4 9 L 6 9 L 6 8 L 9 8 C 10.656854 8 12 6.6568542 12 5 C 12 3.3431458 10.656854 2 9 2 L 6 2 L 4 2 z M 6 4 L 9 4 C 9.5522847 4 10 4.4477153 10 5 C 10 5.5522847 9.5522847 6 9 6 L 6 6 L 6 4 z M 2 10 L 2 12 L 14 12 L 14 10 L 2 10 z M 2 13 L 2 15 L 14 15 L 14 13 L 2 13 z "
   />
</svg>
